X:1
T:Title
L:1/8
M:2/4
K:C
V:1 treble nm="Grand Piano"
V:1
 z2[Q:1/4=100] EE | EE/E/ EE/E/ | cB AG/G/ | AG FE | F2 DD | DD DD/D/ | BA GF | GF ED |[M:1/4] E2 | %9
 EE |[M:2/4] EE/E/ EE/E/ | cB AG/G/ | AG FE | F2 DD | DD DD/D/ | BA GF | GF ED |[M:1/4] E2 | AB | %19
[M:2/4] c2 AB | c2 AB | cB AG | F2 GA | BB GA | B2 GA | BA GF | E2 cB | A2 AA | A2 cB | AA AA | %30
 G/A/B BA | GG GG | G2 FE | FE ^GB | A2 z2 |] %35

